P3
16 16
255
255 255 255 255 255 255 255 255 255 255 255 255 255 255 255 255 255 255 255 255 255 255 255 255
255 255 255 255 255 255 255 255 255 255 255 255 255 255 255 255 255 255 255 255 255 255 255 255
255 255 255 255 255 255 255 255 255 255 255 255 255 255 255 255 255 255 17 24 39 17 24 39
255 255 255 255 255 255 249 115 22 255 255 255 255 255 255 255 255 255 255 255 255 255 255 255
255 255 255 255 255 255 255 255 255 255 255 255 17 24 39 17 24 39 17 24 39 17 24 39
255 255 255 255 255 255 249 115 22 249 115 22 255 255 255 255 255 255 255 255 255 255 255 255
255 255 255 255 255 255 255 255 255 17 24 39 17 24 39 17 24 39 17 24 39 17 24 39
255 255 255 249 115 22 249 115 22 249 115 22 249 115 22 249 115 22 255 255 255 255 255 255
255 255 255 255 255 255 17 24 39 17 24 39 17 24 39 17 24 39 255 255 255 255 255 255
255 255 255 249 115 22 249 115 22 249 115 22 249 115 22 255 255 255 255 255 255 255 255 255
255 255 255 255 255 255 17 24 39 17 24 39 17 24 39 255 255 255 255 255 255 255 255 255
255 255 255 249 115 22 249 115 22 249 115 22 255 255 255 255 255 255 255 255 255 255 255 255
255 255 255 17 24 39 17 24 39 17 24 39 255 255 255 255 255 255 255 255 255 255 255 255
255 255 255 249 115 22 249 115 22 255 255 255 255 255 255 255 255 255 255 255 255 255 255 255
255 255 255 17 24 39 17 24 39 17 24 39 255 255 255 255 255 255 255 255 255 255 255 255
249 115 22 249 115 22 255 255 255 255 255 255 255 255 255 255 255 255 255 255 255 255 255 255
255 255 255 17 24 39 17 24 39 17 24 39 255 255 255 255 255 255 255 255 255 249 115 22
249 115 22 249 115 22 255 255 255 255 255 255 255 255 255 255 255 255 255 255 255 255 255 255
255 255 255 17 24 39 17 24 39 17 24 39 255 255 255 255 255 255 255 255 255 255 255 255
249 115 22 245 158 11 255 255 255 255 255 255 255 255 255 255 255 255 255 255 255 255 255 255
255 255 255 255 255 255 17 24 39 17 24 39 17 24 39 255 255 255 255 255 255 255 255 255
255 255 255 245 158 11 245 158 11 245 158 11 245 158 11 245 158 11 255 255 255 255 255 255
255 255 255 255 255 255 17 24 39 17 24 39 17 24 39 17 24 39 255 255 255 255 255 255
255 255 255 245 158 11 245 158 11 245 158 11 245 158 11 245 158 11 245 158 11 255 255 255
255 255 255 255 255 255 255 255 255 17 24 39 17 24 39 17 24 39 17 24 39 17 24 39
255 255 255 245 158 11 245 158 11 245 158 11 245 158 11 245 158 11 245 158 11 255 255 255
255 255 255 255 255 255 255 255 255 255 255 255 17 24 39 17 24 39 17 24 39 17 24 39
255 255 255 255 255 255 245 158 11 245 158 11 245 158 11 245 158 11 245 158 11 245 158 11
255 255 255 255 255 255 255 255 255 255 255 255 255 255 255 255 255 255 17 24 39 17 24 39
255 255 255 255 255 255 255 255 255 245 158 11 245 158 11 245 158 11 255 255 255 255 255 255
255 255 255 255 255 255 255 255 255 255 255 255 255 255 255 255 255 255 255 255 255 255 255 255
255 255 255 255 255 255 255 255 255 255 255 255 245 158 11 255 255 255 255 255 255 255 255 255
